_includes/icons/ios-csv.svg

<svg fill="#666" height="50" viewBox="0 0 50 50" width="50" xmlns="http://www.w3.org/2000/svg"><path d="m7 2v46h36v-32.589844l-13.816406-13.410156zm2 2h19v13h13v29h-32zm21 1.578125 9.707031 9.421875h-9.707031zm-9.765625 18.132813c-1.96875 0-4.082031 1.484375-4.082031 5.292968 0 2.867188 1.230469 4.996094 3.8125 4.996094.6875 0 1.242187-.105469 1.527344-.238281l-.195313-1.652344c-.238281.074219-.617187.152344-.945312.152344-1.199219 0-2.117188-.945313-2.117188-3.359375 0-2.507813 1.007813-3.464844 2.117188-3.464844.433593 0 .691406.089844.914062.191406l.332031-1.648437c-.195312-.136719-.675781-.269531-1.363281-.269531zm5.140625 0c-2.113281 0-3.191406 1.347656-3.191406 2.96875 0 .914062.523437 1.980468 1.902344 2.820312.855468.554688 1.304687.914063 1.304687 1.652344 0 .65625-.449219 1.136719-1.378906 1.136719-.570313 0-1.261719-.164063-1.664063-.386719l-.285156 1.691406c.332031.195313 1.125.40625 1.933594.40625 1.980469 0 3.347656-1.214844 3.347656-3.0625 0-1.0625-.496094-2.082031-1.828125-2.890625-1.097656-.660156-1.398437-.976562-1.398437-1.578125 0-.539062.402343-1.046875 1.242187-1.046875.570313 0 1.007813.164063 1.292969.34375l.316406-1.695312c-.300781-.179688-.933594-.359375-1.59375-.359375zm2.253906.089843 2.261719 10.105469h2.203125l2.3125-10.105469h-2.160156l-.6875 4.320313c-.183594 1.136719-.347656 2.355469-.480469 3.554687h-.03125c-.132812-1.183593-.34375-2.433593-.523437-3.511718l-.722657-4.363282z"/></svg>

<svg xmlns="http://www.w3.org/2000/svg" viewBox="0 0 50 50" width="50" height="50" fill="#666"><path d="M 7 2 L 7 48 L 43 48 L 43 15.410156 L 29.183594 2 Z M 9 4 L 28 4 L 28 17 L 41 17 L 41 46 L 9 46 Z M 30 5.578125 L 39.707031 15 L 30 15 Z M 20.234375 23.710938 C 18.265625 23.710938 16.152344 25.195313 16.152344 29.003906 C 16.152344 31.871094 17.382813 34 19.964844 34 C 20.652344 34 21.207031 33.894531 21.492188 33.761719 L 21.296875 32.109375 C 21.058594 32.183594 20.679688 32.261719 20.351563 32.261719 C 19.152344 32.261719 18.234375 31.316406 18.234375 28.902344 C 18.234375 26.394531 19.242188 25.4375 20.351563 25.4375 C 20.785156 25.4375 21.042969 25.527344 21.265625 25.628906 L 21.597656 23.980469 C 21.402344 23.84375 20.921875 23.710938 20.234375 23.710938 Z M 25.375 23.710938 C 23.261719 23.710938 22.183594 25.058594 22.183594 26.679688 C 22.183594 27.59375 22.707031 28.660156 24.085938 29.5 C 24.941406 30.054688 25.390625 30.414063 25.390625 31.152344 C 25.390625 31.808594 24.941406 32.289063 24.011719 32.289063 C 23.441406 32.289063 22.75 32.125 22.347656 31.902344 L 22.0625 33.59375 C 22.394531 33.789063 23.1875 34 23.996094 34 C 25.976563 34 27.34375 32.785156 27.34375 30.9375 C 27.34375 29.875 26.847656 28.855469 25.515625 28.046875 C 24.417969 27.386719 24.117188 27.070313 24.117188 26.46875 C 24.117188 25.929688 24.519531 25.421875 25.359375 25.421875 C 25.929688 25.421875 26.367188 25.585938 26.652344 25.765625 L 26.96875 24.070313 C 26.667969 23.890625 26.035156 23.710938 25.375 23.710938 Z M 27.628906 23.800781 L 29.890625 33.90625 L 32.09375 33.90625 L 34.40625 23.800781 L 32.246094 23.800781 L 31.558594 28.121094 C 31.375 29.257813 31.210938 30.476563 31.078125 31.675781 L 31.046875 31.675781 C 30.914063 30.492188 30.703125 29.242188 30.523438 28.164063 L 29.800781 23.800781 Z"/></svg>
